assets/images/svg/line.svg

<svg width="231" height="8" viewBox="0 0 231 8" fill="none" xmlns="http://www.w3.org/2000/svg">
<path d="M230.354 4.35355C230.549 4.15829 230.549 3.84171 230.354 3.64645L227.172 0.464466C226.976 0.269204 226.66 0.269204 226.464 0.464466C226.269 0.659728 226.269 0.976311 226.464 1.17157L229.293 4L226.464 6.82843C226.269 7.02369 226.269 7.34027 226.464 7.53553C226.66 7.7308 226.976 7.7308 227.172 7.53553L230.354 4.35355ZM0 4.5H1.51316V3.5H0V4.5ZM4.53947 4.5H7.56579V3.5H4.53947V4.5ZM10.5921 4.5H13.6184V3.5H10.5921V4.5ZM16.6447 4.5H19.6711V3.5H16.6447V4.5ZM22.6974 4.5H25.7237V3.5H22.6974V4.5ZM28.75 4.5H31.7763V3.5H28.75V4.5ZM34.8026 4.5H37.8289V3.5H34.8026V4.5ZM40.8553 4.5H43.8816V3.5H40.8553V4.5ZM46.9079 4.5H49.9342V3.5H46.9079V4.5ZM52.9605 4.5H55.9868V3.5H52.9605V4.5ZM59.0131 4.5H62.0395V3.5H59.0131V4.5ZM65.0658 4.5H68.0921V3.5H65.0658V4.5ZM71.1184 4.5H74.1447V3.5H71.1184V4.5ZM77.171 4.5H80.1973V3.5H77.171V4.5ZM83.2237 4.5H86.25V3.5H83.2237V4.5ZM89.2763 4.5H92.3026V3.5H89.2763V4.5ZM95.3289 4.5H98.3552V3.5H95.3289V4.5ZM101.382 4.5H104.408V3.5H101.382V4.5ZM107.434 4.5H110.46V3.5H107.434V4.5ZM113.487 4.5H116.513V3.5H113.487V4.5ZM119.539 4.5H122.566V3.5H119.539V4.5ZM125.592 4.5H128.618V3.5H125.592V4.5ZM131.645 4.5H134.671V3.5H131.645V4.5ZM137.697 4.5H140.724V3.5H137.697V4.5ZM143.75 4.5H146.776V3.5H143.75V4.5ZM149.803 4.5H152.829V3.5H149.803V4.5ZM155.855 4.5H158.882V3.5H155.855V4.5ZM161.908 4.5H164.934V3.5H161.908V4.5ZM167.961 4.5H170.987V3.5H167.961V4.5ZM174.013 4.5H177.04V3.5H174.013V4.5ZM180.066 4.5H183.092V3.5H180.066V4.5ZM186.118 4.5H189.145V3.5H186.118V4.5ZM192.171 4.5H195.197V3.5H192.171V4.5ZM198.224 4.5H201.25V3.5H198.224V4.5ZM204.276 4.5H207.303V3.5H204.276V4.5ZM210.329 4.5H213.355V3.5H210.329V4.5ZM216.382 4.5H219.408V3.5H216.382V4.5ZM222.434 4.5H225.461V3.5H222.434V4.5ZM228.487 4.5H230V3.5H228.487V4.5Z" fill="#E5E8EA"/>
</svg>

<svg xmlns="http://www.w3.org/2000/svg" width="231" height="8" fill="none" viewBox="0 0 231 8"><path fill="#e5e8ea" d="M230.354 4.354a.5.5 0 0 0 0-.708L227.172.464a.501.501 0 0 0-.708.708L229.293 4l-2.829 2.828a.5.5 0 0 0 .708.708zM0 4.5h1.513v-1H0zm4.54 0h3.026v-1H4.539zm6.052 0h3.026v-1h-3.026zm6.053 0h3.026v-1h-3.026zm6.052 0h3.027v-1h-3.027zm6.053 0h3.026v-1H28.75zm6.053 0h3.026v-1h-3.026zm6.052 0h3.027v-1h-3.027zm6.053 0h3.026v-1h-3.026zm6.053 0h3.026v-1H52.96zm6.052 0h3.026v-1h-3.026zm6.053 0h3.026v-1h-3.026zm6.052 0h3.027v-1h-3.027zm6.053 0h3.026v-1h-3.026zm6.053 0h3.026v-1h-3.026zm6.052 0h3.027v-1h-3.027zm6.053 0h3.026v-1H95.33zm6.053 0h3.026v-1h-3.026zm6.052 0h3.026v-1h-3.026zm6.053 0h3.026v-1h-3.026zm6.052 0h3.027v-1h-3.027zm6.053 0h3.026v-1h-3.026zm6.053 0h3.026v-1h-3.026zm6.052 0h3.027v-1h-3.027zm6.053 0h3.026v-1h-3.026zm6.053 0h3.026v-1h-3.026zm6.052 0h3.027v-1h-3.027zm6.053 0h3.026v-1h-3.026zm6.053 0h3.026v-1h-3.026zm6.052 0h3.027v-1h-3.027zm6.053 0h3.026v-1h-3.026zm6.052 0h3.027v-1h-3.027zm6.053 0h3.026v-1h-3.026zm6.053 0h3.026v-1h-3.026zm6.052 0h3.027v-1h-3.027zm6.053 0h3.026v-1h-3.026zm6.053 0h3.026v-1h-3.026zm6.052 0h3.027v-1h-3.027zm6.053 0H230v-1h-1.513z"/></svg>
